public/img/basket.svg

<svg fill="none" height="259" viewBox="0 0 1149 259" width="1149" xmlns="http://www.w3.org/2000/svg" xmlns:xlink="http://www.w3.org/1999/xlink"><clipPath id="a"><path d="m0 0h1149v259h-1149z"/></clipPath><mask id="b" fill="#fff"><path d="m1149 259h-1149l239.913-259h669.174z" fill="#fff"/></mask><mask id="c" fill="#fff"><path d="m1114 352h-1079l225.297-259h628.406z" fill="#fff"/></mask><mask id="d" fill="#fff"><path d="m1081 454h-1013l211.517-259h589.966z" fill="#fff"/></mask><g clip-path="url(#a)"><path d="m326.086 1.46005 23.819 255.89395" stroke="#000" stroke-width="2"/><path d="m0-1h257" stroke="#000" stroke-width="2" transform="matrix(-.0926838 .995696 .995696 .0926838 815.819 1.55273)"/><path d="m430 1v257" stroke="#000" stroke-width="2"/><path d="m524 1v257" stroke="#000" stroke-width="2"/><path d="m618 1v257" stroke="#000" stroke-width="2"/><path d="m712 1v257" stroke="#000" stroke-width="2"/><path d="m1149 259v2h4.58l-3.11-3.359zm-1149 0-1.46724-1.359-3.11157 3.359h4.57881zm239.913-259v-2h-.874l-.593.64088zm669.174 0 1.467-1.35912-.593-.64088h-.874zm239.913 259v-2h-1149v2 2h1149zm-1149 0 1.46724 1.359 239.91276-258.99988-1.467-1.35912-1.467-1.35912-239.91324 259.00012zm239.913-259v2h669.174v-2-2h-669.174zm669.174 0-1.467 1.35912 239.91 258.99988 1.47-1.359 1.47-1.359-239.916-259.00012z" fill="#000" mask="url(#b)"/><path d="m1114 352v2h4.39l-2.88-3.313zm-1079 0-1.509-1.313-2.8815 3.313h4.3905zm225.297-259v-2h-.911l-.598.6874zm628.406 0 1.509-1.3126-.598-.6874h-.911zm225.297 259v-2h-1079v2 2h1079zm-1079 0 1.509 1.313 225.297-259.0004-1.509-1.3126-1.509-1.3126-225.297 258.9996zm225.297-259v2h628.406v-2-2h-628.406zm628.406 0-1.509 1.3126 225.296 259.0004 1.51-1.313 1.51-1.313-225.298-258.9996z" fill="#000" mask="url(#c)"/><path d="m1081 454v2h4.22l-2.67-3.265zm-1013 0-1.5491-1.265-2.6664 3.265h4.2155zm211.517-259v-2h-.949l-.6.735zm589.966 0 1.549-1.265-.6-.735h-.949zm211.517 259v-2h-1013v2 2h1013zm-1013 0 1.5491 1.265 211.5169-259-1.549-1.265-1.549-1.265-211.5171 259zm211.517-259v2h589.966v-2-2h-589.966zm589.966 0-1.549 1.265 211.516 259 1.55-1.265 1.55-1.265-211.518-259z" fill="#000" mask="url(#d)"/><g stroke="#000" stroke-width="2"><path d="m241 0 52 258.5"/><path d="m196 48 57.5 256"/><path d="m952.5 48-55.5 256"/><path d="m152 96 51.5 256"/><path d="m996.5 96-53.5 256"/><path d="m106 145 51.5 256"/><path d="m1042.5 145-51.5 256"/><path d="m58 198 51.5 256"/><path d="m1090.5 198-51.5 256"/><path d="m856 258 52.5-258"/></g></g></svg>

<svg width="1149" height="259" viewBox="0 0 1149 259" fill="none" xmlns="http://www.w3.org/2000/svg">
<g clip-path="url(#clip0_465_860)">
<line x1="326.086" y1="1.46005" x2="349.905" y2="257.354" stroke="black" stroke-width="2"/>
<line y1="-1" x2="257" y2="-1" transform="matrix(-0.0926838 0.995696 0.995696 0.0926838 815.819 1.55273)" stroke="black" stroke-width="2"/>
<line x1="430" y1="1" x2="430" y2="258" stroke="black" stroke-width="2"/>
<line x1="524" y1="1" x2="524" y2="258" stroke="black" stroke-width="2"/>
<line x1="618" y1="1" x2="618" y2="258" stroke="black" stroke-width="2"/>
<line x1="712" y1="1" x2="712" y2="258" stroke="black" stroke-width="2"/>
<mask id="path-7-inside-1_465_860" fill="white">
<path d="M1149 259H0L239.913 0H909.087L1149 259Z"/>
</mask>
<path d="M1149 259V261H1153.58L1150.47 257.641L1149 259ZM0 259L-1.46724 257.641L-4.57881 261H0V259ZM239.913 0V-2H239.039L238.446 -1.35912L239.913 0ZM909.087 0L910.554 -1.35912L909.961 -2H909.087V0ZM1149 259V257H0V259V261H1149V259ZM0 259L1.46724 260.359L241.38 1.35912L239.913 0L238.446 -1.35912L-1.46724 257.641L0 259ZM239.913 0V2H909.087V0V-2H239.913V0ZM909.087 0L907.62 1.35912L1147.53 260.359L1149 259L1150.47 257.641L910.554 -1.35912L909.087 0Z" fill="black" mask="url(#path-7-inside-1_465_860)"/>
<mask id="path-9-inside-2_465_860" fill="white">
<path d="M1114 352H35L260.297 93H888.703L1114 352Z"/>
</mask>
<path d="M1114 352V354H1118.39L1115.51 350.687L1114 352ZM35 352L33.491 350.687L30.6095 354H35V352ZM260.297 93V91H259.386L258.788 91.6874L260.297 93ZM888.703 93L890.212 91.6874L889.614 91H888.703V93ZM1114 352V350H35V352V354H1114V352ZM35 352L36.509 353.313L261.806 94.3126L260.297 93L258.788 91.6874L33.491 350.687L35 352ZM260.297 93V95H888.703V93V91H260.297V93ZM888.703 93L887.194 94.3126L1112.49 353.313L1114 352L1115.51 350.687L890.212 91.6874L888.703 93Z" fill="black" mask="url(#path-9-inside-2_465_860)"/>
<mask id="path-11-inside-3_465_860" fill="white">
<path d="M1081 454H68L279.517 195H869.483L1081 454Z"/>
</mask>
<path d="M1081 454V456H1085.22L1082.55 452.735L1081 454ZM68 454L66.4509 452.735L63.7845 456H68V454ZM279.517 195V193H278.568L277.968 193.735L279.517 195ZM869.483 195L871.032 193.735L870.432 193H869.483V195ZM1081 454V452H68V454V456H1081V454ZM68 454L69.5491 455.265L281.066 196.265L279.517 195L277.968 193.735L66.4509 452.735L68 454ZM279.517 195V197H869.483V195V193H279.517V195ZM869.483 195L867.934 196.265L1079.45 455.265L1081 454L1082.55 452.735L871.032 193.735L869.483 195Z" fill="black" mask="url(#path-11-inside-3_465_860)"/>
<path d="M241 0L293 258.5" stroke="black" stroke-width="2"/>
<path d="M196 48L253.5 304" stroke="black" stroke-width="2"/>
<path d="M952.5 48L897 304" stroke="black" stroke-width="2"/>
<path d="M152 96L203.5 352" stroke="black" stroke-width="2"/>
<path d="M996.5 96L943 352" stroke="black" stroke-width="2"/>
<path d="M106 145L157.5 401" stroke="black" stroke-width="2"/>
<path d="M1042.5 145L991 401" stroke="black" stroke-width="2"/>
<path d="M58 198L109.5 454" stroke="black" stroke-width="2"/>
<path d="M1090.5 198L1039 454" stroke="black" stroke-width="2"/>
<path d="M856 258L908.5 0" stroke="black" stroke-width="2"/>
</g>
<defs>
<clipPath id="clip0_465_860">
<rect width="1149" height="259" fill="white"/>
</clipPath>
</defs>
</svg>
